X:1
T:Kumbaya My Lord
C:Traditional Spiritual
M:4/4
L:1/4
Q:1/4=80
K:C
!mp! C E | G2 G G | A A G z | C E G G | G A A G |
z C E G | G G A A | G4- | G2 G E | A A G2 |]
w: Kum-ba-ya, my Lord, kum-ba-ya. Kum-ba-ya, my Lord, kum-ba-ya. Kum-ba-ya, my Lord, kum-ba-ya. O Lord, kum-ba-ya.
